Obsidian-SemiLight/actions/22s/labplot-xy-plot-two-axes-centered-origin.svg

<svg viewBox="0 0 22 22" xmlns="http://www.w3.org/2000/svg"><path d="m16.726562 3-1.726562 2.9902344v2 .0097656h-1.646484-.353516-1l-1 1v-5h-1v5.9941406l-.0058594.0058594h.0058594l-1.0019531 1h-5.9980469v1h4.9960938l-.9960938.998047-1 .998047v.003906.789062 3.210938h-3v1h4v-1-3.589844l.4101562-.410156h.0019532l2-2h.5878906v7h1v-7h7v-1h-7v-.587891l1.412109-1.412109h3.587891v-1-1.7421875l1.302734-2.2578125h1.697266v-1h-1.119141z" fill="#4d4d4d"/></svg>

<svg xmlns="http://www.w3.org/2000/svg" viewBox="0 0 22 22">
  <defs id="defs3051">
    <style type="text/css" id="current-color-scheme">
      .ColorScheme-Text {
        color:#4d4d4d;
      }
      </style>
  </defs>
 <path 
     style="fill:currentColor;fill-opacity:1;stroke:none" 
     d="M 16.726562 3 L 15 5.9902344 L 15 7.9902344 L 15 8 L 13.353516 8 L 13 8 L 12 8 L 11 9 L 11 4 L 10 4 L 10 9.9941406 L 9.9941406 10 L 10 10 L 8.9980469 11 L 3 11 L 3 12 L 7.9960938 12 L 7 12.998047 L 6 13.996094 L 6 14 L 6 14.789062 L 6 18 L 3 18 L 3 19 L 7 19 L 7 18 L 7 14.410156 L 7.4101562 14 L 7.4121094 14 L 9.4121094 12 L 10 12 L 10 19 L 11 19 L 11 12 L 18 12 L 18 11 L 11 11 L 11 10.412109 L 12.412109 9 L 16 9 L 16 8 L 16 6.2578125 L 17.302734 4 L 19 4 L 19 3 L 17.880859 3 L 16.726562 3 z "
     class="ColorScheme-Text"
     />
</svg>
